public/assets/logos/software/blender.svg

<svg fill="none" height="10" viewBox="0 0 10 10" width="10" xmlns="http://www.w3.org/2000/svg"><path d="m3.7444 5.55349c.03637-.64859.35346-1.22168.8339-1.62662.47014-.39808 1.10158-.64173 1.79479-.64173.68977 0 1.32121.2433 1.79135.64173.48044.40494.79615.97803.8339 1.62662.03638.66575-.23164 1.28689-.70007 1.74674-.48044.46671-1.15991.76184-1.92518.76184s-1.44818-.29307-1.92519-.76184c-.47015-.45985-.73782-1.07755-.70007-1.7433z" fill="#fff"/><path d="m5.18222 5.47406c.01869-.33331.18164-.62781.42853-.83591.2416-.20457.56609-.32978.92232-.32978.35447 0 .67896.12504.92056.32978.24689.2081.40914.5026.42853.83591.0187.34212-.11903.66131-.35976.89763-.24689.23983-.59606.3915-.98933.3915-.39326 0-.7442-.15061-.98933-.3915-.2416-.23632-.37916-.55375-.35976-.89587z" fill="#265787"/><path d="m3.066 6.17946c.00229.1305.04391.38445.10634.58196.13121.41972.35447.8077.66308 1.14805.31744.35094.70894.63311 1.1604.83415.47438.20986.98933.31743 1.52368.31743.53434-.0007 1.04929-.11004 1.52368-.32272.45146-.2028.84296-.48497 1.16039-.83767.31038-.34389.53258-.73186.66308-1.15158.06613-.21162.10793-.42677.12468-.64192.01637-.21162.00957-.42501-.02063-.63839-.0589-.41443-.2028-.80417-.42324-1.15687-.20105-.32625-.46205-.61018-.77243-.85002l.00071-.00052-3.12142-2.39839c-.00283-.00212-.00512-.00441-.00812-.00635-.20456-.157305-.55021-.156775-.77418.00088-.22749.15943-.25395.42325-.05114.58902l-.00088.00088 1.30324 1.05988-3.96792.00423h-.00529c-.32801.00035-.64368.21515-.70541.48849-.06419.27688.15872.50789.50084.50789l-.00053.00124 2.01041-.00388-3.597572 2.75109c-.004585.00335-.009523.00687-.013756.01022-.33859502.25924-.447933.69131-.234548.96289.216913.27687.677191.27863 1.019316.00158l1.9575-1.6048s-.02857.21691-.02627.34565zm5.04366.72481c-.40384.4109-.96993.64545-1.58011.64545-.61194.00105-1.17803-.22926-1.58188-.64016-.19751-.20104-.34212-.4303-.43206-.67543-.08764-.2416-.12168-.49731-.09911-.75478.02134-.25219.09647-.49379.21692-.7107.1178-.21339.2804-.40737.47967-.57138.39327-.31919.89234-.49379 1.41434-.49379.52377-.0007 1.02284.17089 1.41611.49026.19927.16295.36152.35623.47967.56962.12045.21691.19576.45675.21692.7107.02222.25747-.01182.51318-.09946.75478-.08959.2469-.23455.47615-.43207.67719z" fill="#ea7600"/></svg>

<svg width="10" height="10" viewBox="0 0 10 10" fill="none" xmlns="http://www.w3.org/2000/svg">
<path d="M3.7444 5.55349C3.78077 4.9049 4.09786 4.33181 4.5783 3.92687C5.04844 3.52879 5.67988 3.28514 6.37309 3.28514C7.06286 3.28514 7.6943 3.52844 8.16444 3.92687C8.64488 4.33181 8.96059 4.9049 8.99834 5.55349C9.03472 6.21924 8.7667 6.84038 8.29827 7.30023C7.81783 7.76694 7.13836 8.06207 6.37309 8.06207C5.60782 8.06207 4.92491 7.769 4.4479 7.30023C3.97775 6.84038 3.71008 6.22268 3.74783 5.55693L3.7444 5.55349Z" fill="white"/>
<path d="M5.18222 5.47406C5.20091 5.14075 5.36386 4.84625 5.61075 4.63815C5.85235 4.43358 6.17684 4.30837 6.53307 4.30837C6.88754 4.30837 7.21203 4.43341 7.45363 4.63815C7.70052 4.84625 7.86277 5.14075 7.88216 5.47406C7.90086 5.81618 7.76313 6.13537 7.5224 6.37169C7.27551 6.61152 6.92634 6.76319 6.53307 6.76319C6.13981 6.76319 5.78887 6.61258 5.54374 6.37169C5.30214 6.13537 5.16458 5.81794 5.18398 5.47582L5.18222 5.47406Z" fill="#265787"/>
<path d="M3.066 6.17946C3.06829 6.30996 3.10991 6.56391 3.17234 6.76142C3.30355 7.18114 3.52681 7.56912 3.83542 7.90947C4.15286 8.26041 4.54436 8.54258 4.99582 8.74362C5.4702 8.95348 5.98515 9.06105 6.5195 9.06105C7.05384 9.06035 7.56879 8.95101 8.04318 8.73833C8.49464 8.53553 8.88614 8.25336 9.20357 7.90066C9.51395 7.55677 9.73615 7.1688 9.86665 6.74908C9.93278 6.53746 9.97458 6.32231 9.99133 6.10716C10.0077 5.89554 10.0009 5.68215 9.9707 5.46877C9.9118 5.05434 9.7679 4.6646 9.54746 4.3119C9.34641 3.98565 9.08541 3.70172 8.77503 3.46188L8.77574 3.46136L5.65432 1.06297C5.65149 1.06085 5.6492 1.05856 5.6462 1.05662C5.44164 0.899315 5.09599 0.899845 4.87202 1.0575C4.64453 1.21693 4.61807 1.48075 4.82088 1.64652L4.82 1.6474L6.12324 2.70728L2.15532 2.71151H2.15003C1.82202 2.71186 1.50635 2.92666 1.44462 3.2C1.38043 3.47688 1.60334 3.70789 1.94546 3.70789L1.94493 3.70913L3.95534 3.70525L0.357768 6.45634C0.353183 6.45969 0.348245 6.46321 0.344012 6.46656C0.00541698 6.7258 -0.103921 7.15787 0.109464 7.42945C0.326377 7.70632 0.786655 7.70808 1.12878 7.43103L3.08628 5.82623C3.08628 5.82623 3.05771 6.04314 3.06001 6.17188L3.066 6.17946ZM8.10966 6.90427C7.70582 7.31517 7.13973 7.54972 6.52955 7.54972C5.91761 7.55077 5.35152 7.32046 4.94767 6.90956C4.75016 6.70852 4.60555 6.47926 4.51561 6.23413C4.42797 5.99253 4.39393 5.73682 4.4165 5.47935C4.43784 5.22716 4.51297 4.98556 4.63342 4.76865C4.75122 4.55526 4.91382 4.36128 5.11309 4.19727C5.50636 3.87808 6.00543 3.70348 6.52743 3.70348C7.0512 3.70278 7.55027 3.87437 7.94354 4.19374C8.14281 4.35669 8.30506 4.54997 8.42321 4.76336C8.54366 4.98027 8.61897 5.22011 8.64013 5.47406C8.66235 5.73153 8.62831 5.98724 8.54067 6.22884C8.45108 6.47574 8.30612 6.70499 8.1086 6.90603L8.10966 6.90427Z" fill="#EA7600"/>
</svg>
